svgs/thin/joint.svg

<svg xmlns="http://www.w3.org/2000/svg" viewBox="0 0 640 512"><!-- Font Awesome Pro 6.0.0-alpha2 by @fontawesome - https://fontawesome.com License - https://fontawesome.com/license (Commercial License) --><path d="M616 352H263.364C173.805 352 85.995 374.824 8.043 418.051C-2.681 423.996 -2.681 440.004 8.043 445.949C85.995 489.176 173.805 512 263.364 512H616C629.254 512 640 501.254 640 488V376C640 362.746 629.254 352 616 352ZM263.364 496C176.963 496 91.358 473.855 15.803 432.043C89.987 390.906 173.868 368.938 258.67 368.148L360.95 496H263.364ZM381.45 496L279.051 368H418.551L520.95 496H381.45ZM624 488C624 492.41 620.413 496 616 496H541.45L439.051 368H616C620.413 368 624 371.59 624 376V488ZM459.594 150.703C502.438 179.297 528 227.281 528 280.922C528 285.359 531.594 288 536 288S544 283.438 544 279C544 221.867 515.75 168.883 468.407 137.297C425.563 108.699 400 60.719 400 9V7.078C400 2.641 396.407 0 392 0S384 4.562 384 9C384 66.133 412.25 119.113 459.594 150.703ZM555.594 150.703C598.438 179.297 624 227.281 624 280.922C624 285.359 627.594 288 632 288S640 283.438 640 279C640 221.867 611.75 168.883 564.407 137.297C521.563 108.699 496 60.719 496 9V7.078C496 2.641 492.407 0 488 0S480 4.562 480 9C480 66.133 508.25 119.113 555.594 150.703Z"/></svg>

<svg xmlns="http://www.w3.org/2000/svg" viewBox="0 0 640 512"><!--! Font Awesome Pro 6.3.0 by @fontawesome - https://fontawesome.com License - https://fontawesome.com/license (Commercial License) Copyright 2023 Fonticons, Inc. --><path d="M616 352H263.4c-89.56 0-177.4 22.82-255.3 66.05c-10.72 5.945-10.72 21.96 0 27.9C85.1 489.2 173.8 512 263.4 512H616c13.25 0 24-10.75 24-24v-112C640 362.7 629.3 352 616 352zM263.4 496c-86.4 0-172-22.14-247.6-63.96c74.18-41.14 158.1-63.11 242.9-63.89L360.9 496H263.4zM381.4 496l-102.4-128h139.5l102.4 128H381.4zM624 488c0 4.41-3.588 8-8 8h-74.55l-102.4-128H616c4.412 0 8 3.59 8 8V488zM459.6 150.7C502.4 179.3 528 227.3 528 280.9C528 285.4 531.6 288 536 288S544 283.4 544 279c0-57.13-28.25-110.1-75.59-141.7C425.6 108.7 400 60.72 400 9V7.078C400 2.641 396.4 0 392 0S384 4.562 384 9C384 66.13 412.3 119.1 459.6 150.7zM555.6 150.7C598.4 179.3 624 227.3 624 280.9C624 285.4 627.6 288 632 288S640 283.4 640 279c0-57.13-28.25-110.1-75.59-141.7C521.6 108.7 496 60.72 496 9V7.078C496 2.641 492.4 0 488 0S480 4.562 480 9C480 66.13 508.3 119.1 555.6 150.7z"/></svg>
